X: 12
T:It's ON!
M:3/4
L:1/4
Q:120
C:Don Henderson
K:D
F/2F|FFF|FED|CEE|EzF|G2G|GFE|DFF|FzA|
BBc|dzB|A<AG|FzF|EEE|EEE|EEF|GFE|
D3-|Dzd|ddd|dGB|A3-|A2z|
d<dd|dzB|A<BA|FzF|EzF|G>CE|D3-|Dz/2||
